X: 2
T: The Kerry
R: slide
M: 12/8
L: 1/8
K: Gmaj
|G,B,D EB,D EFG DB,D|G,B,D EB,D E2 F G3||G,B,D EB,D EFG DB,D|1 BAG AGF E2 F G3:||2 BAG AGF E2 F G2 A|||BAG AGF EFG DB,D|BAG AGF E2 AA2 A||BAG AGF EFG DB,D|1 G,B,D EB,D E2 F G2 A:|


Tune 882	Setting 882

